assets/Shamrock/Flat/shamrock_flat.svg

<svg width="32" height="32" viewBox="0 0 32 32" fill="none" xmlns="http://www.w3.org/2000/svg">
<path d="M22.0036 30.0035C21.8836 30.0035 21.7636 29.9735 21.6536 29.9135C17.7036 27.8435 15.2536 23.7935 15.2536 19.3335V16.5835C15.2536 16.1735 15.5936 15.8335 16.0036 15.8335C16.4136 15.8335 16.7536 16.1735 16.7536 16.5835V19.3335C16.7536 23.2335 18.8936 26.7735 22.3536 28.5835C22.7236 28.7735 22.8636 29.2335 22.6736 29.5935C22.5336 29.8535 22.2736 30.0035 22.0036 30.0035Z" fill="#44911B"/>
<path d="M28.2936 16.0036C29.3736 15.2936 30.0636 14.0436 30.0036 12.6436C29.9136 10.6636 28.2836 9.06362 26.2936 9.00362C25.5136 8.98362 24.7736 9.20362 24.1636 9.58362L24.1236 9.61362C24.0936 9.63362 24.0636 9.65362 24.0236 9.67362L20.2736 12.1636C19.9936 12.3536 19.6536 12.0136 19.8436 11.7336L22.3336 7.98362C22.3536 7.95362 22.3736 7.92362 22.3936 7.88362L22.4236 7.84362C22.8336 7.19362 23.0436 6.42362 23.0036 5.59362C22.8836 3.65362 21.3036 2.09362 19.3636 2.00362C17.9636 1.94362 16.7136 2.63362 16.0036 3.71362C15.2936 2.64362 14.0436 1.94362 12.6436 2.00362C10.6636 2.09362 9.06362 3.72362 9.00362 5.71362C8.98362 6.49362 9.20362 7.23362 9.58362 7.84362L9.61362 7.88362C9.63362 7.91362 9.65362 7.94362 9.67362 7.98362L12.1636 11.7336C12.3536 12.0136 12.0136 12.3536 11.7336 12.1636L7.98362 9.67362C7.95362 9.65362 7.92362 9.63362 7.88362 9.61362L7.84362 9.58362C7.23362 9.20362 6.49362 8.98362 5.71362 9.00362C3.72362 9.06362 2.09362 10.6636 2.00362 12.6436C1.94362 14.0436 2.63362 15.2936 3.71362 16.0036C2.64362 16.7136 1.94362 17.9636 2.00362 19.3636C2.09362 21.3536 3.72362 22.9536 5.71362 23.0036C6.49362 23.0236 7.23362 22.8036 7.84362 22.4236L7.88362 22.3936C7.91362 22.3736 7.94362 22.3536 7.98362 22.3336L15.4836 17.3536C15.7936 17.1436 16.2036 17.1436 16.5236 17.3536L24.0236 22.3336C24.0536 22.3536 24.0836 22.3736 24.1236 22.3936L24.1636 22.4236C24.7736 22.8136 25.5136 23.0236 26.2936 23.0036C28.2836 22.9536 29.9136 21.3536 30.0036 19.3636C30.0636 17.9636 29.3636 16.7136 28.2936 16.0036Z" fill="#86D72F"/>
<path d="M12.8237 2.00366C10.7137 2.00366 9.00366 3.71366 9.00366 5.82366C9.00366 6.56366 9.21366 7.26366 9.58366 7.85366L9.61366 7.89366C9.63366 7.92366 9.65366 7.95366 9.67366 7.99366L15.0037 16.0037H16.0037V3.71366C15.3237 2.68366 14.1537 2.00366 12.8237 2.00366Z" fill="#86D72F"/>
<path d="M2.0036 19.1837C2.0036 21.2937 3.7136 23.0037 5.8236 23.0037C6.5636 23.0037 7.2636 22.7937 7.8536 22.4237L7.8936 22.3937C7.9236 22.3737 7.9536 22.3537 7.9936 22.3337L16.0036 17.0037V16.0037H3.7136C2.6836 16.6837 2.0036 17.8537 2.0036 19.1837Z" fill="#86D72F"/>
<path d="M30.0037 12.8237C30.0037 10.7137 28.2937 9.00366 26.1837 9.00366C25.4437 9.00366 24.7437 9.21366 24.1537 9.58366L24.1137 9.61366C24.0837 9.63366 24.0537 9.65366 24.0137 9.67366L16.0037 15.0037V16.0037H28.2937C29.3237 15.3237 30.0037 14.1537 30.0037 12.8237Z" fill="#86D72F"/>
<path d="M22.0036 30.0035C21.8836 30.0035 21.7636 29.9735 21.6536 29.9135C17.7036 27.8435 15.2536 23.7935 15.2536 19.3335V16.5835C15.2536 16.1735 15.5936 15.8335 16.0036 15.8335C16.4136 15.8335 16.7536 16.1735 16.7536 16.5835V19.3335C16.7536 23.2335 18.8936 26.7735 22.3536 28.5835C22.7236 28.7735 22.8636 29.2335 22.6736 29.5935C22.5336 29.8535 22.2736 30.0035 22.0036 30.0035Z" fill="#44911B"/>
<path d="M28.2985 16.0004C28.2969 16.0015 28.2953 16.0025 28.2936 16.0036C29.3636 16.7136 30.0636 17.9636 30.0036 19.3636C29.9136 21.3536 28.2836 22.9536 26.2936 23.0036C25.5136 23.0236 24.7736 22.8136 24.1636 22.4236L24.1236 22.3936C24.0836 22.3736 24.0536 22.3536 24.0236 22.3336L16.5236 17.3536C16.2036 17.1436 15.7936 17.1436 15.4836 17.3536L7.99362 22.3336C7.95362 22.3536 7.92362 22.3736 7.89362 22.3936L7.85362 22.4236C7.34732 22.7411 6.76001 22.9408 6.13594 22.9911C5.99686 23.0029 5.85591 23.0073 5.71362 23.0036C3.72362 22.9536 2.09362 21.3536 2.00362 19.3636C1.98713 18.9788 2.02807 18.6053 2.11833 18.2512C2.35283 17.3173 2.93146 16.521 3.71095 16.0054L3.71362 16.0036C2.63362 15.2936 1.94362 14.0436 2.00362 12.6436C2.09362 10.6636 3.72362 9.06362 5.71362 9.00362C6.49362 8.98362 7.23362 9.20362 7.84362 9.58362L7.88362 9.61362C7.92362 9.63362 7.95362 9.65362 7.98362 9.67362L11.7336 12.1636C12.0048 12.3476 12.3322 12.0346 12.18 11.7603L9.67363 7.99362C9.65363 7.95362 9.63363 7.92362 9.61363 7.89362L9.58363 7.85362C9.26673 7.34828 9.0672 6.76225 9.01646 6.1395C9.00439 5.99927 8.99994 5.85712 9.00362 5.71362C9.00968 5.5126 9.03146 5.31526 9.06775 5.1228C9.28125 3.97101 10.0113 3.00075 11.0087 2.46132C11.4998 2.19329 12.0549 2.03038 12.6436 2.00362C13.0274 1.98718 13.3999 2.02783 13.753 2.11756C14.6893 2.35184 15.4876 2.93193 16.0036 3.71362C16.7136 2.63362 17.9636 1.94362 19.3636 2.00362C21.3036 2.09362 22.8836 3.65362 23.0036 5.59362C23.0436 6.42362 22.8336 7.19362 22.4236 7.84362L22.3936 7.88362C22.3736 7.92362 22.3536 7.95362 22.3336 7.98362L19.8436 11.7336C19.6596 12.0048 19.9727 12.3322 20.247 12.18L24.0136 9.67363C24.0536 9.65364 24.0836 9.63364 24.1136 9.61364L24.1536 9.58363C24.659 9.26673 25.245 9.0672 25.8677 9.01646C26.008 9.00439 26.1501 8.99994 26.2936 9.00362C26.495 9.0097 26.6927 9.03154 26.8855 9.06795C28.0369 9.2817 29.0068 10.0117 29.546 11.0089C29.814 11.4999 29.9769 12.055 30.0036 12.6436C30.0635 14.0415 29.3757 15.2898 28.2985 16.0004Z" fill="#86D72F"/>
</svg>

<svg xmlns="http://www.w3.org/2000/svg" width="32" height="32" fill="none"><path fill="#44911B" d="M22.004 30.003a.73.73 0 0 1-.35-.09c-3.95-2.07-6.4-6.12-6.4-10.58v-2.75c0-.41.34-.75.75-.75s.75.34.75.75v2.75c0 3.9 2.14 7.44 5.6 9.25.37.19.51.65.32 1.01-.14.26-.4.41-.67.41Z"/><path fill="#86D72F" d="M28.294 16.004a3.813 3.813 0 0 0 1.71-3.36c-.09-1.98-1.72-3.58-3.71-3.64-.78-.02-1.52.2-2.13.58l-.04.03c-.03.02-.06.04-.1.06l-3.75 2.49c-.28.19-.62-.15-.43-.43l2.49-3.75c.02-.03.04-.06.06-.1l.03-.04c.41-.65.62-1.42.58-2.25-.12-1.94-1.7-3.5-3.64-3.59-1.4-.06-2.65.63-3.36 1.71a3.835 3.835 0 0 0-3.36-1.71c-1.98.09-3.58 1.72-3.64 3.71-.02.78.2 1.52.58 2.13l.03.04c.02.03.04.06.06.1l2.49 3.75c.19.28-.15.62-.43.43l-3.75-2.49c-.03-.02-.06-.04-.1-.06l-.04-.03c-.61-.38-1.35-.6-2.13-.58-1.99.06-3.62 1.66-3.71 3.64-.06 1.4.63 2.65 1.71 3.36a3.835 3.835 0 0 0-1.71 3.36 3.825 3.825 0 0 0 3.71 3.64c.78.02 1.52-.2 2.13-.58l.04-.03c.03-.02.06-.04.1-.06l7.5-4.98c.31-.21.72-.21 1.04 0l7.5 4.98c.03.02.06.04.1.06l.04.03c.61.39 1.35.6 2.13.58a3.825 3.825 0 0 0 3.71-3.64c.06-1.4-.64-2.65-1.71-3.36Z"/><path fill="#86D72F" d="M12.824 2.004a3.82 3.82 0 0 0-3.82 3.82c0 .74.21 1.44.58 2.03l.03.04c.02.03.04.06.06.1l5.33 8.01h1V3.714a3.803 3.803 0 0 0-3.18-1.71ZM2.004 19.184a3.82 3.82 0 0 0 3.82 3.82c.74 0 1.44-.21 2.03-.58l.04-.03c.03-.02.06-.04.1-.06l8.01-5.33v-1H3.714a3.803 3.803 0 0 0-1.71 3.18ZM30.004 12.824a3.82 3.82 0 0 0-3.82-3.82c-.74 0-1.44.21-2.03.58l-.04.03a.88.88 0 0 1-.1.06l-8.01 5.33v1h12.29a3.803 3.803 0 0 0 1.71-3.18Z"/><path fill="#44911B" d="M22.004 30.003a.73.73 0 0 1-.35-.09c-3.95-2.07-6.4-6.12-6.4-10.58v-2.75c0-.41.34-.75.75-.75s.75.34.75.75v2.75c0 3.9 2.14 7.44 5.6 9.25.37.19.51.65.32 1.01-.14.26-.4.41-.67.41Z"/><path fill="#86D72F" d="m28.299 16-.005.004c1.07.71 1.77 1.96 1.71 3.36a3.825 3.825 0 0 1-3.71 3.64c-.78.02-1.52-.19-2.13-.58l-.04-.03c-.04-.02-.07-.04-.1-.06l-7.5-4.98a.937.937 0 0 0-1.04 0l-7.49 4.98a.88.88 0 0 0-.1.06l-.04.03a3.807 3.807 0 0 1-2.14.58 3.825 3.825 0 0 1-3.71-3.64 3.833 3.833 0 0 1 1.707-3.359l.003-.001a3.813 3.813 0 0 1-1.71-3.36c.09-1.98 1.72-3.58 3.71-3.64.78-.02 1.52.2 2.13.58l.04.03c.04.02.07.04.1.06l3.75 2.49c.27.184.598-.13.446-.404L9.674 7.994a.88.88 0 0 0-.06-.1l-.03-.04a3.806 3.806 0 0 1-.568-1.715 3.806 3.806 0 0 1 .051-1.017 3.824 3.824 0 0 1 1.942-2.66 3.763 3.763 0 0 1 2.744-.344 3.809 3.809 0 0 1 2.25 1.596 3.813 3.813 0 0 1 3.36-1.71c1.94.09 3.52 1.65 3.64 3.59.04.83-.17 1.6-.58 2.25l-.03.04a.88.88 0 0 1-.06.1l-2.49 3.75c-.183.27.13.598.404.446l3.767-2.506c.04-.02.07-.04.1-.06l.04-.03a3.807 3.807 0 0 1 1.714-.568c.14-.012.282-.016.426-.012a3.824 3.824 0 0 1 3.252 2.005c.268.49.43 1.046.458 1.635A3.813 3.813 0 0 1 28.298 16Z"/></svg>
